X:6
T:Fair Girl Mind This - Parsons
C:Taken down from Jas. Parsons by F.W.B.
%%VWML:SBG-1-1-332-0
F:http://www.vwml.org/record/SBG/1/1/332
Z:Original Sibleius Transcription by Martin and Shan Graebe
L:1/8
M:3/8
I:linebreak $
K:D
A | d d d | c A A | A F D | G2 A | A c B | A G E | F D2- | D2 A | d d d | c A F | E D D | G2 G |$ 
A c B | A G E | F D2- | D2 A | A d d | e d d | d f e | d2 A | A d d | e d c | B A B | A2 A |$ 
d A A | B A A | B A D | G F G | d2 d | A A G | F D2 | d3 | cA c | B A G | F D2 |] 



